modules/feathericon/icons/layer.svg

<svg width="12" height="14" xmlns="http://www.w3.org/2000/svg"><path d="M11 8l-5 4-5-4-1 1 6 5 6-5-1-1zM6 0L0 5l6 5 6-5-6-5z" fill="#000" fill-rule="evenodd"/></svg>

<?xml version="1.0" encoding="UTF-8"?>
<svg width="12px" height="14px" viewBox="0 0 12 14" version="1.1" xmlns="http://www.w3.org/2000/svg" xmlns:xlink="http://www.w3.org/1999/xlink">
    <!-- Generator: sketchtool 48.1 (47250) - http://www.bohemiancoding.com/sketch -->
    <title>layer</title>
    <desc>Created with sketchtool.</desc>
    <defs></defs>
    <g id="production" stroke="none" stroke-width="1" fill="none" fill-rule="evenodd">
        <g id="layer" fill="#000000">
            <path d="M11,8 L6,12 L1,8 L0,9 L6,14 L12,9 L11,8 Z M6,0 L0,5 L6,10 L12,5 L6,0 Z" id="Shape"></path>
        </g>
    </g>
</svg>
